icons/tokens/0x5dbcF33D8c2E976c6b560249878e6F1491Bca25c/logo.svg

<svg xmlns="http://www.w3.org/2000/svg" width="32" height="32" viewBox="0 0 32 32">
  <g fill="none" fill-rule="evenodd">
    <path fill="#0657F9" d="M32,16 C32,13.90592 31.58336,11.81184 30.78208,9.87712 C29.9808,7.9424 28.79456,6.16704 27.3136,4.6864 C25.83296,3.20544 24.0576,2.0192 22.12288,1.21792 C20.18816,0.41664 18.09408,0 16,0 C13.90592,0 11.81184,0.41664 9.87712,1.21792 C7.9424,2.0192 6.16704,3.20544 4.6864,4.6864 C3.20544,6.16704 2.0192,7.9424 1.21792,9.87712 C0.41664,11.81184 0,13.90592 0,16 C0,18.09408 0.41664,20.18816 1.21792,22.12288 C2.0192,24.0576 3.20544,25.83296 4.6864,27.3136 C6.16704,28.79456 7.9424,29.9808 9.87712,30.78208 C11.81184,31.58336 13.90592,32 16,32 C18.09408,32 20.18816,31.58336 22.12288,30.78208 C24.0576,29.9808 25.83296,28.79456 27.3136,27.3136 C28.79456,25.83296 29.9808,24.0576 30.78208,22.12288 C31.58336,20.18816 32,18.09408 32,16 Z"/>
    <path fill="#FFF" d="M26.41792 12.2964911C26.38592 12.2746297 26.3328 12.2334416 26.26464 12.1764119 25.07168 11.1755406 24.8496 11.1410059 24.6928 11.2173624 24.51648 11.2709069 24.4128 11.3738772 23.99424 13.1218376 23.96832 13.2292436 23.94912 13.3090851 23.93984 13.3490059 23.71168 14.3378376 23.76928 14.6071446 23.88224 14.7316594 23.92928 14.7836198 23.98944 14.8206891 24.0576 14.8390653 24.12448 14.869798 24.2064 14.8745505 24.28224 14.8482535 24.54144 14.7589069 24.76448 14.3619168 24.90848 13.9335604 24.93152 14.0580752 24.9488 14.1825901 24.96288 14.3080554 24.97632 14.4325703 24.98912 14.5580356 24.9984 14.687303 25.00864 14.8298772 25.01696 14.9680158 25.02144 15.1109069 25.02592 15.2490455 25.03072 15.3916198 25.03072 15.5297584 25.03072 15.6726495 25.02144 15.8152238 25.01696 15.9533624 25.01248 16.083897 24.9984 16.208095 24.98912 16.3326099 24.97952 16.4628277 24.96288 16.5870257 24.94432 16.7115406 24.92512 16.8408079 24.90848 16.9662733 24.8912 17.0904713 24.87552 17.2029465 24.8496 17.3144713 24.82784 17.4206099 24.7984 17.5638178 24.76448 17.6981545 24.73312 17.8362931 24.70176 17.9753822 24.656 18.1125703 24.61568 18.2459564 24.57824 18.3701545 24.53952 18.491501 24.4992 18.6112634 24.45856 18.7322931 24.4128 18.8523723 24.36768 18.973402 24.32256 19.0950653 24.26848 19.2141941 24.21888 19.3295208 24.16672 19.4508673 24.11168 19.5658772 24.0576 19.6824713 23.73312 20.379501 23.3184 20.9976396 22.83168 21.5958178 22.75776 21.6867485 22.67488 21.7786297 22.59744 21.8676594 22.51872 21.9585901 22.43616 22.0457188 22.35424 22.1303129 22.14464 22.3467089 21.92192 22.563105 21.69696 22.7639762 21.6048 22.8463525 21.51232 22.9249267 21.41792 22.995897 20.57792 23.6244911 19.73312 24.1650059 18.75968 24.5439366 18.63968 24.5908277 18.512 24.6329663 18.39552 24.6728871 18.26816 24.7166099 18.14752 24.7530455 18.02176 24.7929663 17.90016 24.8316198 17.77376 24.8648871 17.64704 24.8956198 17.14112 25.0185505 16.64736 25.1104317 16.1296 25.1592238 15.9712 25.1744317 15.81824 25.1855208 15.66112 25.1947089 15.54848 25.2013624 15.4352 25.203897 15.31872 25.203897 15.1792 25.203897 15.0352 25.2083327 14.89568 25.203897 14.75136 25.1991446 14.60736 25.1902733 14.46656 25.1810851 14.33632 25.1725307 14.21056 25.1592238 14.08384 25.1456 13.97152 25.1335604 13.85888 25.119303 13.74592 25.1056792 13.60096 25.0882535 13.46208 25.0613228 13.32256 25.0337584 13.19744 25.0093624 13.07136 24.9846495 12.94432 24.9539168 12.80544 24.9200158 12.67008 24.887699 12.53024 24.8509465 12.40288 24.8176792 12.28256 24.7802931 12.16032 24.7403723 12.03456 24.6991842 11.9136 24.6592634 11.79136 24.6149069 11.7376 24.5952634 11.68352 24.5756198 11.62976 24.5566099 11.46176 24.4967287 11.27808 24.5166891 11.13376 24.6193426 10.98656 24.7242139 10.90432 24.8911842 10.90912 25.0701941 10.92032 25.5067881 11.43616 25.8638574 12.4128 26.1265109L12.41728 26.1265109C12.53952 26.1585109 12.6608 26.1892436 12.78624 26.2199762 12.92224 26.2532436 13.06208 26.2782733 13.2016 26.3058376 13.34528 26.3340356 13.48512 26.3549465 13.62464 26.3764911 13.76448 26.3983525 13.90368 26.4164119 14.048 26.4347881 14.1872 26.4522139 14.32704 26.4610851 14.47104 26.4699564 14.61088 26.4788277 14.75488 26.4883327 14.89568 26.4930851 15.03968 26.4975208 15.1792 26.5019564 15.32352 26.4975208 15.46272 26.4930851 15.60704 26.4975208 15.74656 26.4883327 15.872 26.480095 15.99904 26.4747089 16.1248 26.4655208 16.28288 26.4541149 16.43968 26.4392238 16.59296 26.4164119 16.73728 26.4037386 16.8768 26.3809267 17.01632 26.3593822 17.15712 26.3375208 17.29632 26.3102733 17.43584 26.2827089 17.57536 26.2554614 17.7152 26.2247287 17.85472 26.1936792 17.9952 26.1626297 18.12896 26.1230257 18.26848 26.0818376 18.40768 26.0409663 18.54432 26.001996 18.67904 25.9573228 18.81824 25.911699 18.9488 25.8682931 19.08384 25.8191842 19.21984 25.7697584 19.35488 25.7165307 19.48992 25.6582337 19.6192 25.6024713 19.75168 25.5476594 19.8864 25.4893624 19.9984 25.4310653 20.11584 25.3775208 20.23232 25.3192238 20.36416 25.2533228 20.4896 25.1855208 20.61632 25.1148673 20.72832 25.0524515 20.84128 24.9846495 20.95328 24.9184317 21.06304 24.8534812 21.17472 24.7802931 21.28288 24.7083723 21.39328 24.6351842 21.49856 24.565798 21.60704 24.4903921 21.71584 24.4146693 21.82272 24.3338772 21.9264 24.2540356 22.03072 24.1735604 22.13408 24.0930851 22.23776 24.0084911 22.34144 23.923897 22.44064 23.8348673 22.54336 23.7458376 22.63072 23.6701149 22.7152 23.5893228 22.80064 23.5085307 22.8624 23.4496 22.92288 23.393204 22.98496 23.3349069 23.07968 23.2366891 23.1696 23.1429069 23.264 23.0446891 23.35872 22.9467881 23.44512 22.8485703 23.53504 22.7456 23.62016 22.6483327 23.70592 22.545996 23.79104 22.4430257 23.8752 22.3419564 23.9536 22.2329663 24.03456 22.1303129 24.10592 22.0393822 24.17056 21.947501 24.23264 21.8492832 24.31808 21.7339564 24.4 21.6084911 24.48064 21.4887287 24.54592 21.3917782 24.60288 21.2967287 24.66048 21.1985109 24.73344 21.0743129 24.8048 20.9485307 24.87744 20.8195802 24.93952 20.7093228 24.99392 20.5968475 25.0528 20.4805703 25.11104 20.3649267 25.16576 20.253402 25.21984 20.1323723 25.27776 20.003105 25.33184 19.8741545 25.38592 19.7404515 25.44064 19.6061149 25.4944 19.4768475 25.544 19.3431446 25.58784 19.2246495 25.62464 19.1023525 25.66496 18.9825901 25.71008 18.8488871 25.74688 18.7094812 25.7872 18.576095 25.82848 18.4392238 25.85888 18.3042535 25.8912 18.1616792 25.92128 18.0276594 25.95328 17.8898376 25.98112 17.751699 26.00608 17.6265505 26.02592 17.5061545 26.048 17.3806891 26.072 17.2425505 26.08928 17.0996594 26.10656 16.9615208 26.12224 16.8373228 26.1344 16.7115406 26.1424 16.5870257 26.15136 16.4488871 26.16096 16.3107485 26.17024 16.1681743 26.17824 16.0427089 26.1792 15.9178772 26.1792 15.7936792 26.1792 15.6371644 26.1792 15.4806495 26.17472 15.3241347 26.1712 15.1999366 26.16096 15.0754218 26.15616 14.9496396 26.15072 14.7940752 26.12992 14.6426297 26.11136 14.4861149 26.0944 14.3438574 26.08032 14.205402 26.05696 14.0672634 26.03424 13.9291248 26.01216 13.7909861 25.9856 13.648095 25.96544 13.5403723 25.9408 13.4288475 25.91744 13.3227089 26.27392 13.6037386 26.80096 13.9462337 27.13408 13.8524515 27.22016 13.8283723 27.29216 13.7726099 27.33248 13.7019564 27.38208 13.6436594 27.41312 13.5717386 27.41792 13.491897 27.43392 13.2111842 27.08928 12.8091248 26.41792 12.2964911zM11.65152 19.3342733C12.19264 18.7985109 11.6112 17.3496396 10.35424 16.1098772 9.09984 14.8720158 7.63872 14.289996 7.09792 14.8254416 6.5568 15.3608871 7.13824 16.8097584 8.3904 18.0542733 9.64288 19.2987881 11.11072 19.8697188 11.65152 19.3342733zM19.24192 11.8145901C19.78272 11.280095 19.2016 9.83027327 17.94912 8.59019406 16.69696 7.35011485 15.23328 6.77474851 14.69248 7.31019406 14.15168 7.8456396 14.7328 9.29482772 15.98528 10.5345901 17.23776 11.7746693 18.70112 12.3500356 19.24192 11.8145901z"/>
  </g>
</svg>

<svg viewBox="0 0 32 32"><g fill="none" fill-rule="evenodd"><path fill="#0657F9" d="M32 16c0-2.094-.417-4.188-1.218-6.123a16.047 16.047 0 00-3.468-5.19 16.047 16.047 0 00-5.191-3.47A16.055 16.055 0 0016 0c-2.094 0-4.188.417-6.123 1.218a16.047 16.047 0 00-5.19 3.468 16.047 16.047 0 00-3.47 5.191A16.055 16.055 0 000 16c0 2.094.417 4.188 1.218 6.123a16.047 16.047 0 003.468 5.19 16.047 16.047 0 005.191 3.47A16.055 16.055 0 0016 32c2.094 0 4.188-.417 6.123-1.218a16.047 16.047 0 005.19-3.468 16.047 16.047 0 003.47-5.191A16.055 16.055 0 0032 16z"/><path fill="#FFF" d="M26.418 12.296a2.26 2.26 0 01-.153-.12c-1.193-1-1.415-1.035-1.572-.959-.177.054-.28.157-.699 1.905l-.054.227c-.228.989-.17 1.258-.058 1.383a.363.363 0 00.176.107c.066.03.148.036.224.01.26-.09.482-.487.626-.915.024.124.04.249.055.374a10.548 10.548 0 01.058.803c.005.138.01.28.01.419 0 .143-.01.285-.014.423-.005.13-.019.255-.028.38-.01.13-.026.254-.045.379l-.053.378c-.015.113-.041.224-.063.33-.03.144-.064.278-.095.416-.031.14-.077.277-.117.41-.038.124-.076.246-.117.365-.04.121-.086.241-.131.362-.045.122-.1.241-.15.357-.051.12-.106.236-.16.352a9.098 9.098 0 01-1.226 1.914c-.074.09-.157.183-.235.272a12.728 12.728 0 01-.9.896 4.302 4.302 0 01-.28.232c-.84.628-1.684 1.169-2.657 1.548-.12.047-.248.089-.364.129-.128.044-.248.08-.374.12a10.547 10.547 0 01-2.36.402 6.487 6.487 0 01-.343.009c-.14 0-.284.004-.423 0a9.166 9.166 0 01-.812-.058c-.112-.012-.225-.027-.338-.04a5.638 5.638 0 01-.423-.072 8.584 8.584 0 01-.379-.08c-.139-.034-.274-.066-.414-.103a12.25 12.25 0 01-.9-.294.532.532 0 00-.72.514c.01.436.526.793 1.503 1.056h.004c.123.032.244.062.37.093.135.033.275.058.415.086.143.028.283.049.423.07.14.022.279.04.423.059a14.917 14.917 0 00.848.058c.144.005.283.009.428.005.139-.005.283 0 .423-.01.125-.008.252-.013.378-.022a6.44 6.44 0 00.468-.05c.144-.012.284-.035.423-.057.141-.021.28-.049.42-.076.14-.028.28-.058.419-.09.14-.03.274-.07.413-.111.14-.041.276-.08.411-.125a8.53 8.53 0 00.811-.298c.13-.057.262-.111.396-.17.112-.058.23-.111.346-.17.132-.066.258-.133.384-.204.112-.063.225-.13.337-.197.11-.065.222-.138.33-.21.11-.073.216-.142.324-.218a14.437 14.437 0 00.63-.482c.104-.084.204-.173.306-.262.088-.076.172-.157.258-.237.061-.06.122-.116.184-.174l.279-.29a14.215 14.215 0 00.527-.602c.084-.101.163-.21.244-.313.07-.09.136-.182.198-.28.085-.116.167-.242.248-.361.065-.097.122-.192.18-.29.072-.125.144-.25.216-.38.063-.11.117-.222.176-.338a8.177 8.177 0 00.333-.74c.055-.135.108-.264.158-.398.044-.118.08-.24.121-.36.045-.134.082-.274.122-.407.041-.137.072-.272.104-.414.03-.134.062-.272.09-.41.025-.125.045-.246.067-.371.024-.138.041-.281.059-.42a6.75 6.75 0 00.035-.374l.028-.419c.008-.125.01-.25.01-.374 0-.157 0-.313-.005-.47-.004-.124-.014-.249-.019-.374-.005-.156-.026-.307-.045-.464-.017-.142-.03-.28-.054-.419-.023-.138-.045-.276-.071-.419a8.113 8.113 0 00-.069-.325c.357.28.884.623 1.217.53a.331.331 0 00.198-.151.353.353 0 00.086-.21c.016-.28-.329-.683-1-1.196zm-14.766 7.038c.54-.535-.04-1.984-1.298-3.224-1.254-1.238-2.715-1.82-3.256-1.285-.541.536.04 1.985 1.292 3.23 1.253 1.244 2.72 1.815 3.262 1.28zm7.59-7.52c.54-.534-.04-1.984-1.293-3.224-1.252-1.24-2.716-1.815-3.257-1.28-.54.536.04 1.985 1.293 3.225s2.716 1.815 3.257 1.28z"/></g></svg>
